X: 50
T: DA BOANNIE LASS O' BEKKA HILL
S: Melvyn Leask, Anderson High
R: reel
B: Haand me doon da fiddle, 1979
Z: 2012 John Chambers <jc:trillian.mit.edu>
M: none
L: 1/8
K: D
uB | AGF(uD EF)vG2 | vA(uGFG) (v(3Acd) F2 | vA(ud FD) EFG(uB | AG)FG Ad-d2 :|
|: A | defa e(udcA) | defa f(udg2) | fdd(uf ed)cA | B(uGFG) Aud- d :|
%%begintext align
Dis is a t\"un fae da Wast Side o' Shetland.  I got him fae Peter
Fraser o' Finnigirt an he aye played him a peerie bit slower dan
da usual Shetlan' reel.  Dey were words at ee time.  I mind ee
verse an it says:
%%endtext
%%begintext
		If I hed anidder sixpence
		I wid buy anidder gill
		I wid axe da fiddler te play
		"Da boannie lass o' Bekka Hill".
%%endtext

%%sep 2 1 500
%%sep 1 1 500

